X:1
T:Lady Maxwell of Monreath's Reel
T:Lady Maxwell of Monreath's Reel
T:John Riddell of Ayr (1718-1795)
C:John Riddell of Ayr (1718-1795)
L:1/8
M:2/2
K:F
V:1 treble 
V:1
 f(dTcA) (F2 F)A | G/G/G{a} (Tgf){a} (Tg>fg)a | f(dTcA) (F2 F)A | F/F/F{a} (Tgf) Tf2 f2 :| %4
 c f2 g fdcA | G/G/G{a} (Tgf){a} (Tg>fg)a | c f2 g fdcA | F/F/F{a} (gf) Tg2 f2 | c f2 g fdcA | %9
 G/G/G{a} Tgf{a} (Tg>fg)a | dfcf BfAf | F/F/F (Taf) Tg2 f2 || %12

